; generated by PrusaSlicer 2.3.3+win64 on 2021-10-19 at 15:50:16 UTC

; 

; external perimeters extrusion width = 0.45mm
; perimeters extrusion width = 0.45mm
; infill extrusion width = 0.45mm
; solid infill extrusion width = 0.45mm
; top infill extrusion width = 0.40mm
; support material extrusion width = 0.38mm
; first layer extrusion width = 0.42mm

M201 X9000 Y9000 Z500 E10000 ; sets maximum accelerations, mm/sec^2
M203 X500 Y500 Z12 E120 ; sets maximum feedrates, mm/sec
M204 P1500 R1500 T1500 ; sets acceleration (P, T) and retract acceleration (R), mm/sec^2
M205 X10.00 Y10.00 Z0.20 E2.50 ; sets the jerk limits, mm/sec
M205 S0 T0 ; sets the minimum extruding and travel feed rate, mm/sec
M107
M190 S90 ; set bed temperature and wait for it to be reached
M104 S245 ; set temperature
;TYPE:Custom
G28 ; home all axes
G1 Z5 F5000 ; lift nozzle
M109 S245 ; set temperature and wait for it to be reached
G21 ; set units to millimeters
G90 ; use absolute coordinates
M82 ; use absolute distances for extrusion
G92 E0
;LAYER_CHANGE
;Z:0.2
;HEIGHT:0.2
G1 Z0.200 F9000.000
G1 E-2.00000 F2400.000
G92 E0
G1 X86.342 Y39.993 F9000.000
G1 E2.00000 F2400.000
M204 S500
;TYPE:Skirt
;WIDTH:0.42
G1 F1200.000
G1 X86.658 Y39.422 E2.02047
G1 X87.078 Y38.922 E2.04093
G1 X87.586 Y38.513 E2.06140
G1 X88.168 Y38.207 E2.08201
G1 X88.793 Y38.020 E2.10247
G1 X89.443 Y37.958 E2.12294
G1 X137.936 Y38.135 E3.64342
G1 X198.760 Y44.439 E5.56072
G1 X199.412 Y44.555 E5.58148
G1 X200.046 Y44.786 E5.60265
G1 X200.760 Y45.213 E5.62873
G1 X201.252 Y45.636 E5.64906
G1 X201.743 Y46.250 E5.67372
G1 X202.100 Y46.912 E5.69730
G1 X202.313 Y47.641 E5.72111
G1 X202.403 Y48.420 E5.74570
G1 X202.403 Y151.462 E8.97651
G1 X202.312 Y152.281 E9.00237
G1 X202.083 Y153.043 E9.02731
G1 X201.702 Y153.725 E9.05179
G1 X201.152 Y154.378 E9.07855
G1 X200.674 Y154.760 E9.09774
G1 X199.942 Y155.176 E9.12414
G1 X199.311 Y155.385 E9.14498
G1 X198.624 Y155.488 E9.16676
G1 X137.815 Y159.322 E11.07719
G1 X89.361 Y159.153 E12.59643
G1 X88.709 Y159.074 E12.61704
G1 X88.080 Y158.868 E12.63779
G1 X87.503 Y158.543 E12.65854
G1 X87.004 Y158.115 E12.67915
G1 X86.607 Y157.614 E12.69919
G1 X86.312 Y157.048 E12.71923
G1 X86.128 Y156.435 E12.73927
G1 X86.063 Y155.804 E12.75917
G1 X86.064 Y41.267 E16.35040
G1 X86.141 Y40.614 E16.37101
G1 X86.323 Y40.050 E16.38959
G1 E14.38959 F2400.000
G92 E0
G1 X159.513 Y49.103 F9000.000
G1 E2.00000 F2400.000
;TYPE:Perimeter
G1 F1200.000
G1 X197.716 Y49.108 E3.19782
G1 X197.716 Y150.817 E6.38683
G1 X159.508 Y150.806 E7.58481
G1 X159.513 Y49.163 E10.77175
G1 X159.136 Y48.726 F9000.000
G1 F1200.000
G1 X198.093 Y48.731 E11.99322
G1 X198.093 Y151.194 E15.20588
G1 X159.131 Y151.183 E16.42750
G1 X159.136 Y48.786 E19.63808
G1 X158.759 Y48.447 F9000.000
;TYPE:External perimeter
G1 F1200.000
G1 X158.826 Y48.362 E19.64145
G1 X158.892 Y48.349 E19.64357
G1 X198.373 Y48.354 E20.88147
G1 X198.457 Y48.421 E20.88484
G1 X198.470 Y48.487 E20.88696
G1 X198.470 Y151.427 E24.11458
G1 X198.458 Y151.488 E24.11653
G1 X198.343 Y151.571 E24.12099
G1 X158.852 Y151.560 E25.35921
G1 X158.767 Y151.494 E25.36258
G1 X158.754 Y151.427 E25.36470
G1 X158.759 Y48.507 E28.59171
G1 X158.866 Y48.438 F9000.000
G1 E26.59171 F2400.000
G92 E0
G1 X196.839 Y49.221 F9000.000
G1 E2.00000 F2400.000
;TYPE:Solid infill
;WIDTH:0.420934
G1 F1200.000
G1 X197.433 Y49.816 E2.02643
G1 X197.433 Y50.350 E2.04324
G1 X196.474 Y49.391 E2.08589
G1 X195.939 Y49.391 E2.10270
G1 X197.433 Y50.885 E2.16912
G1 X197.433 Y51.420 E2.18592
G1 X195.404 Y49.391 E2.27611
G1 X194.870 Y49.391 E2.29292
G1 X197.433 Y51.954 E2.40687
G1 X197.433 Y52.489 E2.42368
G1 X194.335 Y49.391 E2.56140
G1 X193.800 Y49.390 E2.57820
G1 X197.433 Y53.023 E2.73969
G1 X197.433 Y53.558 E2.75650
G1 X193.266 Y49.390 E2.94175
G1 X192.731 Y49.390 E2.95856
G1 X197.433 Y54.093 E3.16758
G1 X197.433 Y54.627 E3.18438
G1 X192.196 Y49.390 E3.41717
G1 X191.662 Y49.390 E3.43397
G1 X197.433 Y55.162 E3.69053
G1 X197.433 Y55.696 E3.70733
G1 X191.127 Y49.390 E3.98765
G1 X190.592 Y49.390 E4.00446
G1 X197.433 Y56.231 E4.30854
G1 X197.433 Y56.766 E4.32534
G1 X190.058 Y49.390 E4.65320
G1 X189.523 Y49.390 E4.67000
G1 X197.433 Y57.300 E5.02162
G1 X197.433 Y57.835 E5.03843
G1 X188.988 Y49.390 E5.41381
G1 X188.454 Y49.390 E5.43062
G1 X197.433 Y58.369 E5.82977
G1 X197.433 Y58.904 E5.84657
G1 X187.919 Y49.390 E6.26949
G1 X187.384 Y49.390 E6.28630
G1 X197.433 Y59.438 E6.73298
G1 X197.433 Y59.973 E6.74978
G1 X186.850 Y49.390 E7.22023
G1 X186.315 Y49.390 E7.23704
G1 X197.433 Y60.508 E7.73126
G1 X197.433 Y61.042 E7.74806
G1 X185.780 Y49.389 E8.26604
G1 X185.246 Y49.389 E8.28285
G1 X197.433 Y61.577 E8.82460
G1 X197.433 Y62.111 E8.84140
G1 X184.711 Y49.389 E9.40692
G1 X184.176 Y49.389 E9.42372
G1 X197.433 Y62.646 E10.01301
G1 X197.433 Y63.181 E10.02981
G1 X183.642 Y49.389 E10.64286
G1 X183.107 Y49.389 E10.65966
G1 X197.433 Y63.715 E11.29648
G1 X197.433 Y64.250 E11.31328
G1 X182.572 Y49.389 E11.97387
G1 X182.038 Y49.389 E11.99067
G1 X197.433 Y64.784 E12.67502
G1 X197.433 Y65.319 E12.69182
G1 X181.503 Y49.389 E13.39994
G1 X180.969 Y49.389 E13.41674
G1 X197.433 Y65.854 E14.14862
G1 X197.433 Y66.388 E14.16543
G1 X180.434 Y49.389 E14.92107
G1 X179.899 Y49.389 E14.93788
G1 X197.433 Y66.923 E15.71729
G1 X197.433 Y67.457 E15.73410
G1 X179.365 Y49.389 E16.53728
G1 X178.830 Y49.389 E16.55408
G1 X197.433 Y67.992 E17.38103
G1 X197.433 Y68.527 E17.39783
G1 X178.295 Y49.389 E18.24855
G1 X177.761 Y49.388 E18.26535
G1 X197.433 Y69.061 E19.13983
G1 X197.433 Y69.596 E19.15663
G1 X177.226 Y49.388 E20.05488
G1 X176.691 Y49.388 E20.07168
G1 X197.433 Y70.130 E20.99370
G1 X197.433 Y70.665 E21.01050
G1 X176.157 Y49.388 E21.95628
G1 X175.622 Y49.388 E21.97308
G1 X197.433 Y71.200 E22.94263
G1 X197.433 Y71.734 E22.95943
G1 X175.087 Y49.388 E23.95274
G1 X174.553 Y49.388 E23.96955
G1 X197.433 Y72.269 E24.98663
G1 X197.433 Y72.803 E25.00343
G1 X174.018 Y49.388 E26.04427
G1 X173.483 Y49.388 E26.06108
G1 X197.433 Y73.338 E27.12569
G1 X197.433 Y73.872 E27.14249
G1 X172.949 Y49.388 E28.23087
G1 X172.414 Y49.388 E28.24767
G1 X197.433 Y74.407 E29.35982
G1 X197.433 Y74.942 E29.37662
G1 X171.879 Y49.388 E30.51253
G1 X171.345 Y49.388 E30.52933
G1 X197.433 Y75.476 E31.68901
G1 X197.433 Y76.011 E31.70581
G1 X170.810 Y49.388 E32.88926
G1 X170.275 Y49.388 E32.90606
G1 X197.433 Y76.545 E34.11327
G1 X197.433 Y77.080 E34.13007
G1 X169.741 Y49.388 E35.36105
G1 X169.206 Y49.387 E35.37785
G1 X197.433 Y77.615 E36.63259
G1 X197.433 Y78.149 E36.64940
G1 X168.671 Y49.387 E37.92791
G1 X168.137 Y49.387 E37.94471
G1 X197.433 Y78.684 E39.24698
G1 X197.433 Y79.218 E39.26379
G1 X167.602 Y49.387 E40.58983
G1 X167.067 Y49.387 E40.60663
G1 X197.433 Y79.753 E41.95644
G1 X197.433 Y80.288 E41.97324
G1 X166.533 Y49.387 E43.34682
G1 X165.998 Y49.387 E43.36362
G1 X197.433 Y80.822 E44.76096
G1 X197.433 Y81.357 E44.77777
G1 X165.463 Y49.387 E46.19887
G1 X164.929 Y49.387 E46.21568
G1 X197.433 Y81.891 E47.66055
G1 X197.433 Y82.426 E47.67735
G1 X164.394 Y49.387 E49.14599
G1 X163.859 Y49.387 E49.16280
G1 X197.433 Y82.961 E50.65520
G1 X197.433 Y83.495 E50.67200
G1 X163.325 Y49.387 E52.18818
G1 X162.790 Y49.387 E52.20498
G1 X197.433 Y84.030 E53.74492
G1 X197.433 Y84.564 E53.76172
G1 X162.255 Y49.387 E55.32543
G1 X161.721 Y49.387 E55.34223
G1 X197.433 Y85.099 E56.92970
G1 X197.433 Y85.634 E56.94651
G1 X161.186 Y49.386 E58.55774
G1 X160.652 Y49.386 E58.57455
G1 X197.433 Y86.168 E60.20955
G1 X197.433 Y86.703 E60.22635
G1 X160.117 Y49.386 E61.88512
G1 X159.796 Y49.386 E61.89521
G1 X159.796 Y49.600 E61.90193
G1 X197.433 Y87.237 E63.57496
G1 X197.433 Y87.772 E63.59177
G1 X159.796 Y50.135 E65.26480
G1 X159.796 Y50.669 E65.28160
G1 X197.433 Y88.306 E66.95464
G1 X197.433 Y88.841 E66.97144
G1 X159.796 Y51.204 E68.64448
G1 X159.796 Y51.738 E68.66128
G1 X197.433 Y89.376 E70.33432
G1 X197.433 Y89.910 E70.35113
G1 X159.796 Y52.273 E72.02417
G1 X159.796 Y52.807 E72.04097
G1 X197.433 Y90.445 E73.71401
G1 X197.433 Y90.979 E73.73081
G1 X159.796 Y53.342 E75.40386
G1 X159.796 Y53.877 E75.42066
G1 X197.433 Y91.514 E77.09370
G1 X197.433 Y92.049 E77.11051
G1 X159.796 Y54.411 E78.78355
G1 X159.796 Y54.946 E78.80035
G1 X197.433 Y92.583 E80.47340
G1 X197.433 Y93.118 E80.49020
G1 X159.796 Y55.480 E82.16325
G1 X159.796 Y56.015 E82.18005
G1 X197.433 Y93.652 E83.85310
G1 X197.433 Y94.187 E83.86990
G1 X159.796 Y56.549 E85.54295
G1 X159.796 Y57.084 E85.55975
G1 X197.433 Y94.722 E87.23280
G1 X197.433 Y95.256 E87.24961
G1 X159.796 Y57.619 E88.92266
G1 X159.796 Y58.153 E88.93946
G1 X197.433 Y95.791 E90.61251
G1 X197.433 Y96.325 E90.62932
G1 X159.796 Y58.688 E92.30237
G1 X159.795 Y59.222 E92.31917
G1 X197.433 Y96.860 E93.99223
G1 X197.433 Y97.395 E94.00903
G1 X159.795 Y59.757 E95.68209
G1 X159.795 Y60.291 E95.69889
G1 X197.433 Y97.929 E97.37195
G1 X197.433 Y98.464 E97.38875
G1 X159.795 Y60.826 E99.06181
G1 X159.795 Y61.361 E99.07861
G1 X197.433 Y98.998 E100.75167
G1 X197.433 Y99.533 E100.76847
G1 X159.795 Y61.895 E102.44153
G1 X159.795 Y62.430 E102.45834
G1 X197.433 Y100.068 E104.13140
G1 X197.433 Y100.602 E104.14820
G1 X159.795 Y62.964 E105.82126
G1 X159.795 Y63.499 E105.83806
G1 X197.433 Y101.137 E107.51113
G1 X197.433 Y101.671 E107.52793
G1 X159.795 Y64.033 E109.20100
G1 X159.795 Y64.568 E109.21780
G1 X197.433 Y102.206 E110.89086
G1 X197.433 Y102.740 E110.90767
G1 X159.795 Y65.102 E112.58074
G1 X159.795 Y65.637 E112.59754
G1 X197.433 Y103.275 E114.27061
G1 X197.433 Y103.810 E114.28741
G1 X159.795 Y66.172 E115.96048
G1 X159.795 Y66.706 E115.97728
G1 X197.433 Y104.344 E117.65035
G1 X197.433 Y104.879 E117.66715
G1 X159.795 Y67.241 E119.34023
G1 X159.795 Y67.775 E119.35703
G1 X197.433 Y105.413 E121.03010
G1 X197.433 Y105.948 E121.04690
G1 X159.795 Y68.310 E122.71998
G1 X159.795 Y68.844 E122.73678
G1 X197.433 Y106.483 E124.40985
G1 X197.433 Y107.017 E124.42666
G1 X159.795 Y69.379 E126.09973
G1 X159.795 Y69.914 E126.11654
G1 X197.433 Y107.552 E127.78961
G1 X197.433 Y108.086 E127.80642
G1 X159.795 Y70.448 E129.47949
G1 X159.795 Y70.983 E129.49630
G1 X197.433 Y108.621 E131.16938
G1 X197.433 Y109.156 E131.18618
G1 X159.795 Y71.517 E132.85926
G1 X159.795 Y72.052 E132.87606
G1 X197.433 Y109.690 E134.54914
G1 X197.433 Y110.225 E134.56595
G1 X159.795 Y72.586 E136.23903
G1 X159.795 Y73.121 E136.25583
G1 X197.433 Y110.759 E137.92892
G1 X197.433 Y111.294 E137.94572
G1 X159.795 Y73.656 E139.61880
G1 X159.795 Y74.190 E139.63561
G1 X197.433 Y111.829 E141.30869
G1 X197.433 Y112.363 E141.32550
G1 X159.795 Y74.725 E142.99858
G1 X159.795 Y75.259 E143.01539
G1 X197.433 Y112.898 E144.68847
G1 X197.433 Y113.432 E144.70528
G1 X159.795 Y75.794 E146.37837
G1 X159.795 Y76.328 E146.39517
G1 X197.433 Y113.967 E148.06826
G1 X197.433 Y114.501 E148.08506
G1 X159.795 Y76.863 E149.75815
G1 X159.795 Y77.398 E149.77496
G1 X197.433 Y115.036 E151.44805
G1 X197.433 Y115.571 E151.46485
G1 X159.795 Y77.932 E153.13795
G1 X159.795 Y78.467 E153.15475
G1 X197.433 Y116.105 E154.82784
G1 X197.433 Y116.640 E154.84465
G1 X159.795 Y79.001 E156.51774
G1 X159.795 Y79.536 E156.53454
G1 X197.433 Y117.174 E158.20764
G1 X197.433 Y117.709 E158.22445
G1 X159.795 Y80.070 E159.89754
G1 X159.794 Y80.605 E159.91435
G1 X197.433 Y118.244 E161.58745
G1 X197.433 Y118.778 E161.60425
G1 X159.794 Y81.139 E163.27735
G1 X159.794 Y81.674 E163.29415
G1 X197.433 Y119.313 E164.96725
G1 X197.433 Y119.847 E164.98406
G1 X159.794 Y82.209 E166.65716
G1 X159.794 Y82.743 E166.67396
G1 X197.433 Y120.382 E168.34706
G1 X197.433 Y120.917 E168.36387
G1 X159.794 Y83.278 E170.03697
G1 X159.794 Y83.812 E170.05378
G1 X197.433 Y121.451 E171.72688
G1 X197.433 Y121.986 E171.74368
G1 X159.794 Y84.347 E173.41679
G1 X159.794 Y84.881 E173.43359
G1 X197.433 Y122.520 E175.10670
G1 X197.433 Y123.055 E175.12351
G1 X159.794 Y85.416 E176.79662
G1 X159.794 Y85.951 E176.81342
G1 X197.433 Y123.590 E178.48653
G1 X197.433 Y124.124 E178.50333
G1 X159.794 Y86.485 E180.17644
G1 X159.794 Y87.020 E180.19325
G1 X197.433 Y124.659 E181.86636
G1 X197.433 Y125.193 E181.88316
G1 X159.794 Y87.554 E183.55628
G1 X159.794 Y88.089 E183.57308
G1 X197.433 Y125.728 E185.24619
G1 X197.433 Y126.263 E185.26300
G1 X159.794 Y88.623 E186.93611
G1 X159.794 Y89.158 E186.95291
G1 X197.433 Y126.797 E188.62603
G1 X197.433 Y127.332 E188.64284
G1 X159.794 Y89.693 E190.31595
G1 X159.794 Y90.227 E190.33276
G1 X197.433 Y127.866 E192.00588
G1 X197.433 Y128.401 E192.02268
G1 X159.794 Y90.762 E193.69580
G1 X159.794 Y91.296 E193.71260
G1 X197.433 Y128.935 E195.38572
G1 X197.433 Y129.470 E195.40253
G1 X159.794 Y91.831 E197.07565
G1 X159.794 Y92.365 E197.09245
G1 X197.433 Y130.005 E198.76558
G1 X197.433 Y130.539 E198.78238
G1 X159.794 Y92.900 E200.45550
G1 X159.794 Y93.435 E200.47231
G1 X197.433 Y131.074 E202.14543
G1 X197.433 Y131.608 E202.16224
G1 X159.794 Y93.969 E203.83536
G1 X159.794 Y94.504 E203.85217
G1 X197.433 Y132.143 E205.52529
G1 X197.433 Y132.678 E205.54210
G1 X159.794 Y95.038 E207.21523
G1 X159.794 Y95.573 E207.23203
G1 X197.433 Y133.212 E208.90516
G1 X197.433 Y133.747 E208.92196
G1 X159.794 Y96.107 E210.59509
G1 X159.794 Y96.642 E210.61190
G1 X197.433 Y134.281 E212.28503
G1 X197.433 Y134.816 E212.30183
G1 X159.794 Y97.177 E213.97497
G1 X159.794 Y97.711 E213.99177
G1 X197.433 Y135.351 E215.66490
G1 X197.433 Y135.885 E215.68171
G1 X159.794 Y98.246 E217.35484
G1 X159.794 Y98.780 E217.37165
G1 X197.433 Y136.420 E219.04478
G1 X197.433 Y136.954 E219.06159
G1 X159.794 Y99.315 E220.73473
G1 X159.794 Y99.849 E220.75153
G1 X197.433 Y137.489 E222.42467
G1 X197.433 Y138.024 E222.44147
G1 X159.794 Y100.384 E224.11461
G1 X159.794 Y100.918 E224.13141
G1 X197.433 Y138.558 E225.80456
G1 X197.433 Y139.093 E225.82136
G1 X159.794 Y101.453 E227.49450
G1 X159.793 Y101.988 E227.51130
G1 X197.433 Y139.627 E229.18445
G1 X197.433 Y140.162 E229.20125
G1 X159.793 Y102.522 E230.87440
G1 X159.793 Y103.057 E230.89120
G1 X197.433 Y140.697 E232.56435
G1 X197.433 Y141.231 E232.58115
G1 X159.793 Y103.591 E234.25430
G1 X159.793 Y104.126 E234.27110
G1 X197.433 Y141.766 E235.94425
G1 X197.433 Y142.300 E235.96105
G1 X159.793 Y104.660 E237.63420
G1 X159.793 Y105.195 E237.65100
G1 X197.433 Y142.835 E239.32415
G1 X197.433 Y143.369 E239.34096
G1 X159.793 Y105.730 E241.01411
G1 X159.793 Y106.264 E241.03091
G1 X197.433 Y143.904 E242.70406
G1 X197.433 Y144.439 E242.72087
G1 X159.793 Y106.799 E244.39402
G1 X159.793 Y107.333 E244.41082
G1 X197.433 Y144.973 E246.08398
G1 X197.433 Y145.508 E246.10078
G1 X159.793 Y107.868 E247.77394
G1 X159.793 Y108.402 E247.79074
G1 X197.433 Y146.042 E249.46390
G1 X197.433 Y146.577 E249.48070
G1 X159.793 Y108.937 E251.15386
G1 X159.793 Y109.472 E251.17066
G1 X197.433 Y147.112 E252.84382
G1 X197.433 Y147.646 E252.86062
G1 X159.793 Y110.006 E254.53378
G1 X159.793 Y110.541 E254.55059
G1 X197.433 Y148.181 E256.22375
G1 X197.433 Y148.715 E256.24055
G1 X159.793 Y111.075 E257.91372
G1 X159.793 Y111.610 E257.93052
G1 X197.433 Y149.250 E259.60368
G1 X197.433 Y149.785 E259.62049
G1 X159.793 Y112.144 E261.29365
G1 X159.793 Y112.679 E261.31045
G1 X197.433 Y150.319 E262.98362
G1 X197.433 Y150.534 E262.99038
G1 X197.113 Y150.534 E263.00043
G1 X159.793 Y113.214 E264.65938
G1 X159.793 Y113.748 E264.67618
G1 X196.579 Y150.534 E266.31137
G1 X196.044 Y150.534 E266.32818
G1 X159.793 Y114.283 E267.93959
G1 X159.793 Y114.817 E267.95640
G1 X195.509 Y150.534 E269.54404
G1 X194.975 Y150.533 E269.56085
G1 X159.793 Y115.352 E271.12473
G1 X159.793 Y115.886 E271.14153
G1 X194.440 Y150.533 E272.68164
G1 X193.905 Y150.533 E272.69845
G1 X159.793 Y116.421 E274.21479
G1 X159.793 Y116.956 E274.23160
G1 X193.370 Y150.533 E275.72417
G1 X192.836 Y150.533 E275.74098
G1 X159.793 Y117.490 E277.20978
G1 X159.793 Y118.025 E277.22658
G1 X192.301 Y150.533 E278.67162
G1 X191.766 Y150.533 E278.68842
G1 X159.793 Y118.559 E280.10969
G1 X159.793 Y119.094 E280.12649
G1 X191.231 Y150.532 E281.52399
G1 X190.697 Y150.532 E281.54080
G1 X159.793 Y119.628 E282.91452
G1 X159.793 Y120.163 E282.93133
G1 X190.162 Y150.532 E284.28128
G1 X189.627 Y150.532 E284.29809
G1 X159.793 Y120.697 E285.62428
G1 X159.793 Y121.232 E285.64108
G1 X189.092 Y150.532 E286.94350
